svgs/sharp-light/alien-8bit.svg

<svg xmlns="http://www.w3.org/2000/svg" viewBox="0 0 576 512"><!--! Font Awesome Pro 6.6.0 by @fontawesome - https://fontawesome.com License - https://fontawesome.com/license (Commercial License) Copyright 2024 Fonticons, Inc. --><path d="M112 32L96 32l0 16 0 64-16 0-64 0L0 112l0 16L0 304l0 16 16 0 48 0 0 48 0 16 16 0 48 0 0 80 0 16 16 0 112 0 16 0 0-16 0-64 0-16 32 0 0 16 0 64 0 16 16 0 112 0 16 0 0-16 0-80 48 0 16 0 0-16 0-48 48 0 16 0 0-16 0-176 0-16-16 0-64 0-16 0 0-64 0-16-16 0-64 0-16 0 0 16 0 16-48 0-16 0 0 16 0 48-64 0 0-48 0-16-16 0-48 0 0-16 0-16-16 0-64 0zM96 128l16 0 48 0 0 32-64 0 0-32zm0 64l80 0 16 0 0-16 0-64 0-16 32 0 0 48 0 16 16 0 96 0 16 0 0-16 0-48 32 0 0 16 0 64 0 16 16 0 80 0 0 48 0 16 32 0 0-16 0-64 0-32 32 0 0 144-48 0-16 0 0 16 0 48-48 0-64 0-160 0-64 0-48 0 0-48 0-16-16 0-48 0 0-144 32 0 0 32 0 64 0 16 32 0 0-16 0-48zm384-32l-64 0 0-32 48 0 16 0 0 32zM160 80l0 16-32 0 0-32 32 0 0 16zM448 96l-32 0 0-16 0-16 32 0 0 32zM160 448l0-64 32 0 0 16 0 16 16 0 32 0 0 32-80 0zm224-48l0-16 32 0 0 64-80 0 0-32 32 0 16 0 0-16zM224 240l0-16-32 0 0 16 0 64 0 16 32 0 0-16 0-64zm160 0l0-16-32 0 0 16 0 64 0 16 32 0 0-16 0-64z"/></svg>

<svg xmlns="http://www.w3.org/2000/svg" viewBox="0 0 576 512"><!--! Font Awesome Pro 6.4.0 by @fontawesome - https://fontawesome.com License - https://fontawesome.com/license (Commercial License) Copyright 2023 Fonticons, Inc. --><path d="M112 32H96V48v64H80 16 0v16V304v16H16 64v48 16H80h48v80 16h16H256h16V464 400 384h32v16 64 16h16H432h16V464 384h48 16V368 320h48 16V304 128 112H560 496 480V48 32H464 400 384V48 64H336 320V80v48H256V80 64H240 192V48 32H176 112zM96 128h16 48v32H96V128zm0 64h80 16V176 112 96h32v48 16h16 96 16V144 96h32v16 64 16h16 80v48 16h32V240 176 144h32V288H496 480v16 48H432 368 208 144 96V304 288H80 32V144H64v32 64 16H96V240 192zm384-32H416V128h48 16v32zM160 80V96H128V64h32V80zM448 96H416V80 64h32V96zM160 448V384h32v16 16h16 32v32H160zm224-48V384h32v64H336V416h32 16V400zM224 240V224H192v16 64 16h32V304 240zm160 0V224H352v16 64 16h32V304 240z"/></svg>
